frontend/public/images/olho_fechado.svg

<!DOCTYPE svg PUBLIC "-//W3C//DTD SVG 1.1//EN" "http://www.w3.org/Graphics/SVG/1.1/DTD/svg11.dtd">
<!-- Uploaded to: SVG Repo, www.svgrepo.com, Transformed by: SVG Repo Mixer Tools -->
<svg width="800px" height="800px" viewBox="0 0 24 24" fill="none" xmlns="http://www.w3.org/2000/svg">
<g id="SVGRepo_bgCarrier" stroke-width="0"/>
<g id="SVGRepo_tracerCarrier" stroke-linecap="round" stroke-linejoin="round"/>
<g id="SVGRepo_iconCarrier"> <g clip-path="url(#clip0_1383_124889)"> <path fill-rule="evenodd" clip-rule="evenodd" d="M23.7069 0.292893C24.0974 0.683417 24.0974 1.31658 23.7069 1.70711L18.9888 6.4252C18.9803 6.43399 18.9717 6.4426 18.9629 6.45102L6.42828 18.9857C6.41981 18.9945 6.41121 19.0031 6.40249 19.0115L1.70686 23.7071C1.31634 24.0976 0.683173 24.0976 0.292649 23.7071C-0.0978752 23.3166 -0.0978752 22.6834 0.292649 22.2929L4.2341 18.3514C2.91616 17.1406 1.94152 15.7855 1.27296 14.6799C0.867402 14.0092 0.568856 13.421 0.370367 12.9971C0.27101 12.785 0.196402 12.6133 0.145717 12.4922C0.120366 12.4317 0.100973 12.3838 0.0874364 12.3497L0.0715024 12.3091L0.0667999 12.2969L0.0652601 12.2928L0.0646926 12.2913C0.0646926 12.2913 0.0642597 12.2902 0.99984 11.9371L0.0739539 11.5593L0.0743572 11.5583L0.0754044 11.5557L0.0784618 11.5483L0.0884377 11.5245C0.0968071 11.5046 0.108623 11.4769 0.123909 11.4419C0.154474 11.372 0.198955 11.2727 0.257542 11.1484C0.374643 10.8998 0.548544 10.55 0.780854 10.1325C1.24425 9.29981 1.94654 8.18638 2.90279 7.0685C4.80627 4.84327 7.80917 2.5 11.9998 2.5C14.4524 2.5 16.5051 3.30553 18.1647 4.42081L22.2926 0.292893C22.6832 -0.0976311 23.3163 -0.0976311 23.7069 0.292893ZM9.67175 12.9138L12.9135 9.67199C12.6306 9.56087 12.3225 9.5 11.9998 9.5C10.619 9.5 9.49976 10.6193 9.49976 12C9.49976 12.3227 9.56062 12.6308 9.67175 12.9138ZM14.3954 8.19018C13.7018 7.75332 12.8799 7.5 11.9998 7.5C9.51447 7.5 7.49976 9.51472 7.49976 12C7.49976 12.8801 7.75308 13.702 8.18993 14.3956L5.64978 16.9358C4.48361 15.8793 3.60149 14.6655 2.98438 13.645C2.62121 13.0444 2.35534 12.5199 2.1816 12.1489C2.14775 12.0766 2.11745 12.0103 2.09065 11.9504C2.19078 11.7404 2.33642 11.4501 2.52847 11.105C2.94543 10.3558 3.57456 9.35995 4.4226 8.36856C6.12769 6.37527 8.62479 4.5 11.9998 4.5C13.8293 4.5 15.3947 5.04849 16.7183 5.8672L14.3954 8.19018Z" fill="#000000"/> <path d="M0.0739539 11.5593L-0.0742188 11.9233L0.0642597 12.2902L0.99984 11.9371C0.0736306 11.5601 0.0739539 11.5593 0.0739539 11.5593Z" fill="#000000"/> <path d="M20.6068 7.99677C21.0545 7.6733 21.6796 7.77395 22.0031 8.22159C22.6473 9.11312 23.1236 9.93792 23.44 10.542C23.5985 10.8445 23.7175 11.0931 23.7981 11.2688C23.8384 11.3567 23.8692 11.4264 23.8905 11.4757C23.9011 11.5004 23.9094 11.5199 23.9153 11.5341L23.9224 11.5512L23.9247 11.5567L23.9255 11.5586L23.9259 11.5598L22.9998 11.9371L23.9351 12.291L23.9347 12.292L23.9337 12.2947L23.9308 12.3023L23.9213 12.3266C23.9134 12.3469 23.9022 12.3751 23.8877 12.4107C23.8586 12.482 23.8163 12.583 23.7604 12.7095C23.6486 12.9623 23.4819 13.318 23.2576 13.7424C22.8101 14.5889 22.1266 15.7209 21.182 16.8577C19.2983 19.1243 16.2929 21.5 11.9998 21.5C11.1271 21.5 10.3029 21.4013 9.52735 21.2228C8.98913 21.099 8.65319 20.5623 8.77702 20.0241C8.90084 19.4859 9.43754 19.1499 9.97576 19.2737C10.6055 19.4186 11.2793 19.5 11.9998 19.5C15.4749 19.5 17.9694 17.5942 19.6438 15.5794C20.4781 14.5754 21.0881 13.5667 21.4894 12.8077C21.6745 12.4576 21.8138 12.1632 21.909 11.9504C21.8466 11.8195 21.7665 11.6573 21.6683 11.4699C21.3863 10.9316 20.959 10.1915 20.382 9.393C20.0585 8.94536 20.1592 8.32025 20.6068 7.99677Z" fill="#000000"/> <path d="M23.9351 12.291C23.9351 12.291 23.9354 12.2902 22.9998 11.9371C23.926 11.5601 23.9259 11.5598 23.9259 11.5598L24.0739 11.9233L23.9351 12.291Z" fill="#000000"/> </g> <defs> <clipPath id="clip0_1383_124889"> <rect width="24" height="24" fill="white"/> </clipPath> </defs> </g>
</svg>

<svg xmlns="http://www.w3.org/2000/svg" width="800" height="800" fill="none" viewBox="0 0 24 24"><g fill="#000" clip-path="url(#a)"><path fill-rule="evenodd" d="M23.707.293a1 1 0 0 1 0 1.414l-4.718 4.718-.026.026L6.428 18.986l-.026.026-4.695 4.695a1 1 0 0 1-1.414-1.414l3.941-3.942c-1.318-1.21-2.292-2.565-2.961-3.671a18 18 0 0 1-.903-1.683 13 13 0 0 1-.283-.647l-.015-.04-.005-.013-.002-.004v-.002L1 11.937l-.926-.378.001-.003.003-.008.01-.024.036-.082q.045-.107.134-.294a19 19 0 0 1 2.645-4.08C4.806 4.844 7.809 2.5 12 2.5c2.452 0 4.505.806 6.165 1.92L22.293.294a1 1 0 0 1 1.414 0M9.672 12.913l3.242-3.241a2.5 2.5 0 0 0-3.242 3.242m4.723-4.723a4.5 4.5 0 0 0-6.205 6.205l-2.54 2.54c-1.166-1.056-2.049-2.27-2.666-3.29a16 16 0 0 1-.893-1.695 17 17 0 0 1 2.332-3.582C6.128 6.376 8.625 4.5 12 4.5c1.83 0 3.395.548 4.718 1.367z" clip-rule="evenodd"/><path d="m.074 11.56-.148.363.138.367.936-.353zm20.533-3.563a1 1 0 0 1 1.396.225c.644.891 1.12 1.716 1.437 2.32a16 16 0 0 1 .475.992l.007.017.003.006v.002l-.925.378.935.354v.001l-.001.003-.003.007-.01.025-.033.084q-.044.107-.128.299a18.3 18.3 0 0 1-2.578 4.148C19.298 19.124 16.292 21.5 12 21.5c-.873 0-1.697-.099-2.473-.277a1 1 0 1 1 .449-1.95A9 9 0 0 0 12 19.5c3.475 0 5.97-1.906 7.644-3.92a16.3 16.3 0 0 0 2.265-3.63 17.3 17.3 0 0 0-1.527-2.557 1 1 0 0 1 .225-1.396"/><path d="M23.935 12.291 23 11.937l.926-.377.148.363z"/></g><defs><clipPath id="a"><path fill="#fff" d="M0 0h24v24H0z"/></clipPath></defs></svg>
